X:1
T:East Boldon
M:6/8
R:Jig
K:D
A|:FAd fed|dcB A2 G|FAd dcd|e2 EE2 g|
FAd fed|dcB A2 G|FAd cec|1 dDD D2 A:|2dDD D2 f|
e2 e efg|f2 f fed|Bef gfe|dcB A2 F|
e2 e efg|f2 f fed|Bef gfe|ddd d3:|
